X: 1013
T: Wayfaring Stranger
B: jims roots
M:4/4
L:1/8
Q: 1/4=100
K:Gm
V:1 
|: "Gm"DD GGBc | !///![d8g]- | [d2g] [dg][dg] !///!d3 c | (3BcB !///!G6- |
G2 DD GGBd | "Cm"!///![E8c]- | [1 [E2c] BG BBcB | "Gm"!///![G8B] :|
"Bb"!///![d4f] !///![f4b]- | !///![f6b] bf | "Eb"!///![g8b]-| [g2b] (f2 d)cBc | "D7"!///![d8^f]- |
G2) DD GGBd | "Cm"!///![E8c]- | [E2c] (3BcB (3(cd)^f (3(dc)B | "Gm"!///!G8 |]
V:[2 [E2c
) (3BcB "D7"(3(cd)g (3(dc)B | "Gm"[G2B]GB Bdfd || [P:Chorus] "Eb"!///![e4g] !///![g4b]- | !///![g2b] !///![f2b]!///![g2b]!///![f2b] |
V:d2f 
 DD GGBc || "Gm"!///![d8g]- | [d2g] DD !///!d3 c | (3(BcB) !///!(G6 |
% abcbook-tune_id 6298c297bf4f130c3ca3e3e1


% abcbook-boost 0
% abcbook-tablature 
% abcbook-transpose 
% abcbook-lastupdated 1654178456723
% abcbook-soundfonts 
% abcbook-repeats 1


